src/assets/toast/success.svg

<svg fill="none" height="36" viewBox="0 0 36 36" width="36" xmlns="http://www.w3.org/2000/svg"><path clip-rule="evenodd" d="m18 33c8.2843 0 15-6.7157 15-15 0-8.28427-6.7157-15-15-15-8.28427 0-15 6.71573-15 15 0 8.2843 6.71573 15 15 15zm8.2071-18.7929c.3905-.3905.3905-1.0237 0-1.4142s-1.0237-.3905-1.4142 0l-8.2929 8.2929-3.7929-3.7929c-.3905-.3905-1.0237-.3905-1.4142 0s-.3905 1.0237 0 1.4142l4.5 4.5c.3905.3905 1.0237.3905 1.4142 0z" fill="#45b36b" fill-rule="evenodd"/></svg>

<svg width="36" height="36" viewBox="0 0 36 36" fill="none" xmlns="http://www.w3.org/2000/svg">
    <path fill-rule="evenodd" clip-rule="evenodd" d="M18 33C26.2843 33 33 26.2843 33 18C33 9.71573 26.2843 3 18 3C9.71573 3 3 9.71573 3 18C3 26.2843 9.71573 33 18 33ZM26.2071 14.2071C26.5976 13.8166 26.5976 13.1834 26.2071 12.7929C25.8166 12.4024 25.1834 12.4024 24.7929 12.7929L16.5 21.0858L12.7071 17.2929C12.3166 16.9024 11.6834 16.9024 11.2929 17.2929C10.9024 17.6834 10.9024 18.3166 11.2929 18.7071L15.7929 23.2071C16.1834 23.5976 16.8166 23.5976 17.2071 23.2071L26.2071 14.2071Z" fill="#45B36B"/>
</svg>
